X: 56
T: Dull Chisel
C:Garry Harrison
B: canberra pickers and fiddlers
B: old time tunes update
B: tunes
M:4/4
L:1/8
Q: 1/4=100
K:A
V:1 
|: af df ae cd | ef ed cd ec | Bc BA GA Bd |1,3 ef ed cd e2 :|2,4 cA BG A2 A2 :|
|: A2 AF EC EF | A2A2c4 | Bc BA GA BG |1,3 AB AG FE EF :|2,4 A2A2A4 :|
% abcbook-tune_id 67a7d9ec7311ea1aceb2abe0
% abcbook-tune_composer_id 
% abcbook-link-0 https://www.youtube.com/watch?v=P6OHBmlFeIY
% abcbook-link-title-0 Dull Chisel - Howard Rains &amp; Tricia Spencer - Mars Hill 2022
% abcbook-boost 3
% abcbook-difficulty 0
% abcbook-tags old time tunes
% abcbook-tablature 
% abcbook-transpose 
% abcbook-tuning AEAE
% abcbook-lastupdated 1739161977759
% abcbook-src-url 
% abcbook-soundfonts 
% abcbook-repeats 1


